X:1
T:[ID 2-19]
T:[ID 2-19]
T:Bezeichnung standardisiert: Englischer Contratanz Engl. Conter Tantz
T:Urheber unbekannt Datum in der hier transkribierten schriftlichen Quelle: 1767
C:Urheber unbekannt
C:Datum in der hier transkribierten schriftlichen Quelle: 1767
L:1/8
M:2/4
K:D
V:1 treble 
V:1
 gfec | dc/B/ A2 | BABc | dc/B/ A2"^F" | gfec | dc/B/ A2 | Bgf/e/d/c/ | d4 :: fgab | ag/f/ g2 | %10
 efga | gf/e/ f2 | fgab | ag/f/ e2 | g/a/g/f/ ec | dc/B/ A2 | agaf | ag/f/ e2 | g/a/g/f/ ec | %19
 Bg f/e/d/c/ | d2 D2 :: d'afd | d'afd | d'c'ba | ag/f/ e2 | ag ad' | c'b/a/ a2 :| %27

